packages/icons/src/svg/tdp-colored.svg

<svg xmlns="http://www.w3.org/2000/svg" viewBox="0 0 16 16">
    <path class="ti-tdp-colored-bg" fill="#00A1B3" d="M15.9999,8 C15.9999,12.418 12.4179,16 7.9999,16 C3.5819,16 -0.0001,12.418 -0.0001,8 C-0.0001,3.582 3.5819,0 7.9999,0 C12.4179,0 15.9999,3.582 15.9999,8"/>
  <g class="ti-tdp-positive-logo" fill="#FFF">
    <path d="M5.8856 10.7798L6.3996 9.8038 9.5336 9.8038 10.0816 10.7798 5.8856 10.7798zM11.0556 11.2808L9.1036 7.8038C9.0656 7.7348 9.0026 7.6858 8.9286 7.6618L8.9286 6.9158 8.9896 6.9158C9.2256 6.9158 9.4176 6.7248 9.4176 6.4878 9.4176 6.2528 9.2256 6.0618 8.9896 6.0618L6.9766 6.0618C6.7406 6.0618 6.5496 6.2528 6.5496 6.4878 6.5496 6.7248 6.7406 6.9158 6.9766 6.9158L7.0376 6.9158 7.0376 7.6628C6.9646 7.6858 6.9016 7.7348 6.8636 7.8038L4.9106 11.2808C4.8576 11.3758 4.8586 11.4918 4.9136 11.5848 4.9686 11.6778 5.0686 11.7358 5.1766 11.7358L10.7906 11.7358C10.8986 11.7358 10.9986 11.6778 11.0536 11.5848 11.1086 11.4908 11.1096 11.3758 11.0556 11.2808zM8.9388 4.5434C8.9388 4.9294 8.6258 5.2434 8.2388 5.2434 7.8528 5.2434 7.5398 4.9294 7.5398 4.5434 7.5398 4.1574 7.8528 3.8444 8.2388 3.8444 8.6258 3.8444 8.9388 4.1574 8.9388 4.5434M10.3519 5.5742C10.3519 5.8332 10.1429 6.0432 9.8839 6.0432 9.6249 6.0432 9.4149 5.8332 9.4149 5.5742 9.4149 5.3162 9.6249 5.1062 9.8839 5.1062 10.1429 5.1062 10.3519 5.3162 10.3519 5.5742M6.5922 5.0991C6.5922 5.3581 6.3822 5.5671 6.1232 5.5671 5.8652 5.5671 5.6552 5.3581 5.6552 5.0991 5.6552 4.8401 5.8652 4.6311 6.1232 4.6311 6.3822 4.6311 6.5922 4.8401 6.5922 5.0991M14.5199 8.3296L13.3069 7.3146 13.3069 8.0486 11.9429 8.0486 11.9409 8.0486C11.7879 8.0486 11.6629 8.1736 11.6629 8.3276 11.6629 8.4816 11.7879 8.6056 11.9409 8.6056L11.9429 8.6056 13.3069 8.6056 13.3069 9.3456 14.5199 8.3296z"/>
    <path d="M14.1195 5.5459C13.2155 3.3089 11.1585 1.7409 8.7475 1.4669 8.6525 1.1419 8.3545.9029 7.9985.9029 7.6425.9029 7.3455 1.1409 7.2495 1.4659 4.8155 1.7419 2.7555 3.3569 1.8595 5.5719L1.8615 5.5729C1.8435 5.6099 1.8315 5.6509 1.8315 5.6949 1.8315 5.8489 1.9555 5.9729 2.1095 5.9729 2.2215 5.9729 2.3185 5.9059 2.3615 5.8099L2.3625 5.8079C2.3645 5.8049 2.3655 5.8019 2.3665 5.7989 3.1815 3.7669 5.0665 2.2809 7.2905 2.0199 7.4165 2.2859 7.6845 2.4719 7.9985 2.4719 8.3105 2.4719 8.5775 2.2889 8.7035 2.0249 10.8985 2.2819 12.7705 3.7059 13.5985 5.7409 13.6465 5.8659 13.7415 5.9689 13.8785 5.9689 14.0325 5.9689 14.1565 5.8439 14.1565 5.6909 14.1565 5.6379 14.1195 5.5459 14.1195 5.5459M13.4408 10.9585C13.2428 10.9585 13.1398 11.1785 13.0838 11.2725 12.1218 12.7715 10.5308 13.7895 8.7158 14.0045 8.5958 13.7265 8.3188 13.5305 7.9968 13.5305 7.6748 13.5305 7.3988 13.7255 7.2778 14.0025 4.5068 13.6675 2.2688 11.4285 1.9848 8.6055L3.8048 8.6055 3.8058 8.6055C3.9598 8.6055 4.0848 8.4805 4.0848 8.3265 4.0848 8.1725 3.9598 8.0475 3.8058 8.0475L3.8058 8.0465 1.4768 8.0465C1.4348 8.0465 1.4018 8.0795 1.3998 8.1205 1.3998 8.1265 1.3998 8.1335 1.3988 8.1405 1.3968 8.2085 1.4128 8.4235 1.4298 8.6235 1.4298 8.6275 1.4298 8.6315 1.4308 8.6365L1.4308 8.6375C1.4318 8.6425 1.4318 8.6485 1.4328 8.6535 1.4418 8.7395 1.4608 8.8975 1.4688 8.9475 1.8978 11.9105 4.2998 14.2225 7.2548 14.5585 7.3578 14.8725 7.6488 15.1005 7.9968 15.1005 8.3448 15.1005 8.6358 14.8725 8.7388 14.5585 10.7168 14.3335 12.4408 13.2225 13.5288 11.6135 13.5718 11.5505 13.7108 11.3735 13.7158 11.2335 13.7218 11.0815 13.5928 10.9585 13.4408 10.9585"/>
  </g>
</svg>

<svg xmlns="http://www.w3.org/2000/svg" viewBox="0 0 16 16">
	<path class="ti-tdp-colored-bg" fill="#00A1B3" d="M16 8A8 8 0 1 1 0 8a8 8 0 0 1 16 0"/>
	<g class="ti-tdp-positive-logo" fill="#FFF">
		<path d="M5.886 10.78l.514-.976h3.134l.548.976H5.886zm5.17.5L9.104 7.805a.305.305 0 0 0-.175-.142v-.746h.06a.428.428 0 1 0 0-.854H6.978a.427.427 0 1 0 0 .854h.06v.747a.3.3 0 0 0-.173.14L4.91 11.282a.305.305 0 0 0 .266.455h5.614a.306.306 0 0 0 .263-.151.303.303 0 0 0 .002-.304zM8.939 4.544a.7.7 0 1 1-1.4 0 .7.7 0 0 1 1.4 0m1.413 1.031a.468.468 0 1 1-.936.002.468.468 0 0 1 .936-.002M6.592 5.1a.468.468 0 1 1-.936 0 .468.468 0 0 1 .936 0m7.928 3.23l-1.213-1.014v.734H11.94a.279.279 0 0 0 0 .557h1.366v.74L14.52 8.33z"/>
		<path d="M14.12 5.546a6.592 6.592 0 0 0-5.372-4.08.781.781 0 0 0-.75-.563.781.781 0 0 0-.748.563 6.649 6.649 0 0 0-5.39 4.106h.001a.277.277 0 0 0 .5.237l.002-.001A6.1 6.1 0 0 1 7.29 2.02a.78.78 0 1 0 1.413.005 6.034 6.034 0 0 1 4.894 3.716c.048.125.143.228.28.228a.278.278 0 0 0 .278-.278c0-.053-.037-.145-.037-.145m-.678 5.413c-.198 0-.301.22-.357.314a6.03 6.03 0 0 1-4.368 2.732.784.784 0 0 0-1.438-.003c-2.771-.335-5.01-2.574-5.293-5.397h1.82a.28.28 0 0 0 0-.558H1.478a.077.077 0 0 0-.077.073l-.001.02a7.119 7.119 0 0 0 .032.496v.002a8.574 8.574 0 0 0 .038.31 6.625 6.625 0 0 0 5.786 5.61.782.782 0 0 0 .742.543.782.782 0 0 0 .742-.543c1.978-.224 3.702-1.335 4.79-2.944.043-.064.182-.24.187-.38a.271.271 0 0 0-.275-.275"/>
	</g>
</svg>
